X:1
T:The Very Unfortunate Man
M:3/4
L:1/4
K:C
 G| E G E| C D E| F A F| D2 G| G G3/2 A/2| G D3/2 D/2| D C D| E2 G|\
 E G E| C D E| F A F| D2 G/2G/2| G G A| G D3/2 F/2| E B, D| C2 G/2F/2|\
 E G E| C D E| F A F| D E F| G/2 G3/2 G| ^F G A| G3-| G G =F| E G E|\
 C D E| F A F| D E F| G G3/2 G/2| F E D| C3-| C2||

